mimes/scalable/application-vnd.ms-access.svg

<?xml version="1.0" encoding="UTF-8" standalone="no"?>
<svg
   xmlns:dc="http://purl.org/dc/elements/1.1/"
   xmlns:cc="http://creativecommons.org/ns#"
   xmlns:rdf="http://www.w3.org/1999/02/22-rdf-syntax-ns#"
   xmlns:svg="http://www.w3.org/2000/svg"
   xmlns="http://www.w3.org/2000/svg"
   xmlns:sodipodi="http://sodipodi.sourceforge.net/DTD/sodipodi-0.dtd"
   xmlns:inkscape="http://www.inkscape.org/namespaces/inkscape"
   width="48"
   height="48"
   viewBox="0 0 12.7 12.7"
   version="1.1"
   id="svg4"
   sodipodi:docname="application-vnd.ms-access.svg"
   inkscape:version="0.92.3 (2405546, 2018-03-11)">
  <metadata
     id="metadata10">
    <rdf:RDF>
      <cc:Work
         rdf:about="">
        <dc:format>image/svg+xml</dc:format>
        <dc:type
           rdf:resource="http://purl.org/dc/dcmitype/StillImage" />
        <dc:title></dc:title>
      </cc:Work>
    </rdf:RDF>
  </metadata>
  <defs
     id="defs8" />
  <sodipodi:namedview
     pagecolor="#ffffff"
     bordercolor="#666666"
     borderopacity="1"
     objecttolerance="10"
     gridtolerance="10"
     guidetolerance="10"
     inkscape:pageopacity="0"
     inkscape:pageshadow="2"
     inkscape:window-width="1366"
     inkscape:window-height="715"
     id="namedview6"
     showgrid="false"
     showguides="true"
     inkscape:guide-bbox="true"
     inkscape:snap-global="true"
     inkscape:zoom="10.979167"
     inkscape:cx="24"
     inkscape:cy="24"
     inkscape:window-x="0"
     inkscape:window-y="27"
     inkscape:window-maximized="1"
     inkscape:current-layer="svg4"
     inkscape:measure-start="0,0"
     inkscape:measure-end="0,0" />
  <path
     inkscape:connector-curvature="0"
     style="opacity:1;fill:#d33afa;fill-opacity:1;fill-rule:nonzero;stroke:none;stroke-width:0.50711805;stroke-linecap:round;stroke-linejoin:bevel;stroke-miterlimit:4;stroke-dasharray:none;stroke-opacity:1"
     d="m 7.3492433,0.0566603 c -0.040983,0 -0.078161,0.0127642 -0.1049033,0.0330729 C 7.218411,0.1094229 7.202933,0.1367362 7.201965,0.1667311 7.3445127,0.2235372 7.4736634,0.30302596 7.5802366,0.40909358 7.76971,0.59766786 7.8931916,0.85276088 7.9104491,1.1392812 h 0.00672 v 0.068213 0.1441772 0.1369425 0.1927531 c 0,0.2812905 0.2266883,0.5079794 0.5079795,0.5079794 h 0.1183391 l -5.291e-4,0.00568 h 1.6924064 c 0.329951,0 0.613684,0.1491999 0.819072,0.3731038 V 1.141865 0.56463964 c 0,-0.14064565 -0.05654,-0.26789289 -0.148312,-0.35966798 C 10.814345,0.11319656 10.687101,0.0566603 10.546455,0.0566603 H 9.0462851 7.7864139 Z"
     id="path965" />
  <path
     style="opacity:1;fill:#333333;fill-opacity:1;fill-rule:nonzero;stroke:none;stroke-width:0.50711805;stroke-linecap:round;stroke-linejoin:bevel;stroke-miterlimit:4;stroke-dasharray:none;stroke-opacity:1"
     d="m 2.9460732,0.55206094 c -0.6285519,0 -1.134298,0.50626306 -1.134298,1.13481446 v 9.9012056 c 0,0.628551 0.5057461,1.134814 1.134298,1.134814 h 4.2855261 2.522327 c 0.6285527,0 1.1342987,-0.506263 1.1342987,-1.134814 V 3.6728008 h -0.01292 C 10.810197,3.1070068 10.337709,2.6687276 9.7539263,2.6687276 h -1.692403 v 0 l -0.11781,-0.00568 C 7.6627483,2.6495013 7.4357343,2.4363589 7.4357343,2.1550682 V 1.9623107 1.8253682 1.6811909 1.612978 h -0.0067 C 7.3941823,1.0346118 6.9321933,0.5804805 6.3510473,0.55464473 l -5.29e-4,-0.002585 h -0.02015 z"
     id="path833"
     inkscape:connector-curvature="0" />
  <path
     style="opacity:1;fill:#cccccc;fill-opacity:1;fill-rule:nonzero;stroke:none;stroke-width:0.50711805;stroke-linecap:round;stroke-linejoin:bevel;stroke-miterlimit:4;stroke-dasharray:none;stroke-opacity:1"
     d="m 6.4269983,1.0791605 c 0.263277,0.019482 0.470254,0.2359637 0.470255,0.504362 v 0.2563151 0.125057 0.092501 c 0,0.5757933 0.427721,1.0388807 0.982369,1.1136271 v 0 l 1.962134,0.026872 c 0.2812647,0.00385 0.5079787,0.2266886 0.5079797,0.5079793 V 5.7894678 11.68575 c 0,0.281291 -0.226688,0.50798 -0.5079797,0.50798 H 7.2315993 2.8582236 c -0.281291,0 -0.50798,-0.226689 -0.50798,-0.50798 V 1.5892069 c 0,-0.2812907 0.226689,-0.5079794 0.50798,-0.5079794 h 3.5692907 z"
     id="path901-5"
     inkscape:connector-curvature="0" />
  <path
     inkscape:connector-curvature="0"
     d="M 6.3500001,5.3622223 A 3.1044446,0.84666669 0 0 0 3.2455555,6.208889 v 4.515556 a 3.1044446,0.84666669 0 0 0 3.1044446,0.846667 3.1044446,0.84666669 0 0 0 3.1044444,-0.846667 V 6.208889 A 3.1044446,0.84666669 0 0 0 6.3500001,5.3622223 m 0,0.2822222 A 2.8222223,0.56444446 0 0 1 9.1722224,6.208889 2.8222223,0.56444446 0 0 1 6.3500001,6.7733335 2.8222223,0.56444446 0 0 1 3.5277777,6.208889 2.8222223,0.56444446 0 0 1 6.3500001,5.6444445 M 3.5277777,6.5594626 A 3.1044446,0.84666669 0 0 0 6.3500001,7.0555557 3.1044446,0.84666669 0 0 0 9.1722224,6.5594626 V 7.6200001 A 2.8222223,0.56444446 0 0 1 6.3500001,8.1844446 2.8222223,0.56444446 0 0 1 3.5277777,7.6200001 Z m 0,1.4111112 A 3.1044446,0.84666669 0 0 0 6.3500001,8.4666669 3.1044446,0.84666669 0 0 0 9.1722224,7.9705738 V 9.3133336 A 2.8222223,0.56444446 0 0 1 6.3500001,9.8777779 2.8222223,0.56444446 0 0 1 3.5277777,9.3133336 Z m 0,1.6933335 A 3.1044446,0.84666669 0 0 0 6.3500001,10.16 3.1044446,0.84666669 0 0 0 9.1722224,9.6639073 V 10.724445 A 2.8222223,0.56444446 0 0 1 6.3500001,11.28889 2.8222223,0.56444446 0 0 1 3.5277777,10.724445 v -0.282222 z"
     id="path35"
     style="color:#4d4d4d;clip-rule:nonzero;display:inline;overflow:visible;visibility:visible;opacity:0.9;isolation:auto;mix-blend-mode:normal;color-interpolation:sRGB;color-interpolation-filters:linearRGB;solid-color:#000000;solid-opacity:1;fill:#d42aff;fill-opacity:1;fill-rule:evenodd;stroke-width:0.28222224;stroke-linecap:butt;stroke-linejoin:miter;stroke-miterlimit:4;stroke-dasharray:none;stroke-dashoffset:0;stroke-opacity:1;color-rendering:auto;image-rendering:auto;shape-rendering:auto;text-rendering:auto;enable-background:accumulate" />
  <path
     inkscape:connector-curvature="0"
     style="line-height:normal;text-indent:0;text-align:start;text-decoration:none;text-decoration-line:none;text-transform:none;stroke-width:0.26458332;marker:none;fill:#d33afa;fill-opacity:1"
     d="M 4.2663303,1.9800431 3.4194214,4.6496478 H 3.9774182 L 4.1575163,4.0168264 H 5.0561179 L 5.2343276,4.6496478 H 5.7923245 L 4.941875,1.9800431 Z m 0.3368282,0.389465 c 0.00931,-0.013174 0.01647,0.077189 0.028797,0.1173115 0.084959,0.3561513 0.1978671,0.7045737 0.2957573,1.0572201 H 4.2913505 c 0.1044164,-0.372708 0.2187538,-0.7426778 0.3016582,-1.1211868 0.00386,-0.032992 0.00713,-0.048993 0.010148,-0.053345 z"
     id="path848" />
</svg>

<?xml version="1.0" encoding="UTF-8" standalone="no"?><svg xmlns:dc="http://purl.org/dc/elements/1.1/" xmlns:cc="http://creativecommons.org/ns#" xmlns:rdf="http://www.w3.org/1999/02/22-rdf-syntax-ns#" xmlns="http://www.w3.org/2000/svg" width="48" height="48" viewBox="0 0 12.7 12.7"><metadata><rdf:RDF><cc:Work><dc:format>image/svg+xml</dc:format><dc:type rdf:resource="http://purl.org/dc/dcmitype/StillImage"/><dc:title/></cc:Work></rdf:RDF></metadata><path d="M7.35.06a.17.17 0 0 0-.1.03.1.1 0 0 0-.05.08 1.12 1.12 0 0 1 .71.97v.55c0 .27.23.5.52.5h1.81c.33 0 .6.15.81.38V.56a.5.5 0 0 0-.5-.5H7.79z" fill="#d33afa"/><path d="M2.95.55c-.63 0-1.14.5-1.14 1.14v9.9c0 .63.5 1.13 1.14 1.13H9.75c.63 0 1.14-.5 1.14-1.13V3.67h-.01c-.07-.56-.54-1-1.13-1H7.94a.52.52 0 0 1-.5-.51V1.6h-.01A1.12 1.12 0 0 0 6.35.55h-.02z" fill="#333"/><path d="M6.43 1.08a.5.5 0 0 1 .47.5v.48c0 .57.42 1.04.98 1.11l1.96.03c.28 0 .51.22.51.5v7.99a.5.5 0 0 1-.5.5H2.85a.5.5 0 0 1-.51-.5V1.59c0-.28.23-.5.5-.5h3.58z" fill="#ccc"/><path d="M6.35 5.36a3.1.85 0 0 0-3.1.85v4.51a3.1.85 0 0 0 3.1.85 3.1.85 0 0 0 3.1-.85V6.21a3.1.85 0 0 0-3.1-.85m0 .28a2.82.56 0 0 1 2.82.57 2.82.56 0 0 1-2.82.56 2.82.56 0 0 1-2.82-.56 2.82.56 0 0 1 2.82-.57m-2.82.92a3.1.85 0 0 0 2.82.5 3.1.85 0 0 0 2.82-.5v1.06a2.82.56 0 0 1-2.82.56 2.82.56 0 0 1-2.82-.56zm0 1.41a3.1.85 0 0 0 2.82.5 3.1.85 0 0 0 2.82-.5v1.34a2.82.56 0 0 1-2.82.57 2.82.56 0 0 1-2.82-.57zm0 1.7a3.1.85 0 0 0 2.82.49 3.1.85 0 0 0 2.82-.5v1.06a2.82.56 0 0 1-2.82.57 2.82.56 0 0 1-2.82-.57v-.28z" style="isolation:auto;mix-blend-mode:normal" color="#4d4d4d" overflow="visible" opacity=".9" fill="#d42aff" fill-rule="evenodd"/><path style="line-height:normal;text-indent:0;text-align:start;text-decoration-line:none;text-transform:none;marker:none" d="M4.27 1.98l-.85 2.67h.56l.18-.63h.9l.17.63h.56l-.85-2.67zm.33.39c.01-.01.02.08.03.12l.3 1.05h-.64c.1-.37.22-.74.3-1.12l.01-.05z" fill="#d33afa"/></svg>
